X:13026
T:Mug of Brown Ale, The
T:Clare Jig; Paddy in London
R:Jig
C:Trad.
O:Ireland
Z:Paul Hardy's Session Tunebook 2015 (see www.paulhardy.net). Creative Commons cc by-nc-sa licenced.
M:6/8
L:1/8
Q:3/8=80
K:Ador
"Am"eAA fAA|gfg age|"G"dBA G2A|BAB dBd|
"Am"eAA fAA|gfg age|"G"dBd gdB|"Am"BAG A3:|
|:"Am"efg a2g|aba age|"G"dBd g2d|gba ged|
"Am"efg a2g|aba age|"G"dBd gdB|"Am"BAG A3:|

